X: 1
T: Punter's Graveyard
C: Daniel Compton
R: reel
Z: 2008 John Chambers <jc:trillian.mit.edu>
F: http://www.scottishfiddlers.com/Sydney/Music/PDFs/National%20Set%2002.pdf
M: C|
L: 1/8
K: Bm
|:"Bm"B3c  dB~B2 | "D"fgfe dcdB | "A"ABcd c3B | "F#m"ABcd cA~A2 |
| "Bm"B2Bc dB~B2 | "D"fgfe defg | "A"aA~A2 c2cd | edcA "Bm"B3A :|
|:"Bm"BF~F2 "G"GBdB | "A"Acac bcac | "Bm"bf~f2 bfaf | "A"ec~c2 egfd |
| "Bm"BF~F2 "G"GBdB | "A"Acac bcac | "Bm"bf~f2 bfaf | "A"egfd "Bm"B3z :|
